svg/u0037_20e3.svg

<svg viewBox="0 0 128 128" xmlns="http://www.w3.org/2000/svg">
  <g>
    <linearGradient id="SVGID_1_" gradientTransform="matrix(1 0 0 -1 -4 -826.1102)" gradientUnits="userSpaceOnUse" x1="9.9803" x2="123.2803" y1="-831.3516" y2="-945.1216">
      <stop offset="0" stop-color="#81D4FA"/>
      <stop offset="1" stop-color="#0094D6"/>
    </linearGradient>
    <path d="M116.46,123.96h-104c-4.42,0-8-3.58-8-8v-104c0-4.42,3.58-8,8-8h104c4.42,0,8,3.58,8,8v104 C124.46,120.38,120.88,123.96,116.46,123.96z" fill="url(#SVGID_1_)"/>
    <g opacity="0.2">
      <path d="M116.46,3.96h-104c-4.42,0-8,3.58-8,8v104c0,4.42,3.58,8,8,8h104c4.42,0,8-3.58,8-8v-104 C124.46,7.54,120.88,3.96,116.46,3.96z" fill="#424242"/>
    </g>
    <path d="M116.46,3.96h-104c-4.42,0-8,3.58-8,8v104c0,4.42,3.58,8,8,8h104c4.42,0,8-3.58,8-8v-104 C124.46,7.54,120.88,3.96,116.46,3.96z" fill="#427687"/>
    <path d="M122.16,6.26c-1.54-1.46-3.58-2.28-5.7-2.3h-104c-4.42,0-8,3.58-8,8v104 c0.02,2.12,0.84,4.16,2.3,5.7l16.8-16.8h76c3.26-0.01,5.89-2.64,5.9-5.9v-76L122.16,6.26z" fill="#8CAFBF"/>
    <path d="M88.26,35.56l-27,61.2c-0.3,0.67-0.97,1.1-1.7,1.1h-8c-1.03,0.01-1.88-0.81-1.89-1.85 c0-0.3,0.06-0.59,0.19-0.85l25.1-54.5c0.45-0.94,0.05-2.07-0.9-2.52c-0.25-0.12-0.52-0.18-0.8-0.18h-30.9c-1.05,0-1.9-0.85-1.9-1.9 v0v-5.5c0-1.05,0.85-1.9,1.9-1.9l0,0h44.2c1.05,0,1.9,0.85,1.9,1.9v0v4.1C88.41,34.97,88.35,35.27,88.26,35.56z" fill="#FAFAFA"/>
    <path d="M40.16,12.86c0-2.3-1.6-3-10.8-2.7c-7.7,0.3-11.5,1.2-13.8,4 s-2.9,8.5-3,15.3c0,4.8,0,9.3,2.5,9.3c3.4,0,3.4-7.9,6.2-12.3C26.66,17.76,40.16,15.86,40.16,12.86z" opacity="0.5" fill="#B4E1ED" enable-background="new "/>
  </g>
</svg>

<svg viewBox="0 0 128 128" xmlns="http://www.w3.org/2000/svg">
  <defs>
    <linearGradient id="SVGID_1_" gradientTransform="matrix(1 0 0 -1 0 0)" gradientUnits="userSpaceOnUse" x1="5.9803" x2="119.2803" y1="-5.2414" y2="-119.0114">
      <stop offset="0" stop-color="#81D4FA"/>
      <stop offset="1" stop-color="#0094D6"/>
    </linearGradient>
  </defs>
  <path d="M116.46,123.96 L12.46,123.96 C8.04,123.96 4.46,120.38 4.46,115.96 L4.46,11.96 C4.46,7.54 8.04,3.96 12.46,3.96 L116.46,3.96 C120.88,3.96 124.46,7.54 124.46,11.96 L124.46,115.96 C124.46,120.38 120.88,123.96 116.46,123.96 Z" fill="url(#SVGID_1_)"/>
  <path d="M116.46,3.96 L12.46,3.96 C8.04,3.96 4.46,7.54 4.46,11.96 L4.46,115.96 C4.46,120.38 8.04,123.96 12.46,123.96 L116.46,123.96 C120.88,123.96 124.46,120.38 124.46,115.96 L124.46,11.96 C124.46,7.54 120.88,3.96 116.46,3.96 Z" fill="#424242" opacity="0.2"/>
  <path d="M116.46,3.96 L12.46,3.96 C8.04,3.96 4.46,7.54 4.46,11.96 L4.46,115.96 C4.46,120.38 8.04,123.96 12.46,123.96 L116.46,123.96 C120.88,123.96 124.46,120.38 124.46,115.96 L124.46,11.96 C124.46,7.54 120.88,3.96 116.46,3.96 Z" fill="#427687"/>
  <path d="M122.16,6.26 C120.62,4.8 118.58,3.98 116.46,3.96 L12.46,3.96 C8.04,3.96 4.46,7.54 4.46,11.96 L4.46,115.96 C4.48,118.08 5.3,120.12 6.76,121.66 L23.56,104.86 L99.56,104.86 C102.82,104.85 105.45,102.22 105.46,98.96 L105.46,22.96 L122.16,6.26 Z" fill="#8CAFBF"/>
  <path d="M88.26,35.56 L61.26,96.76 C60.96,97.43 60.29,97.86 59.56,97.86 L51.56,97.86 C50.53,97.87 49.68,97.05 49.67,96.01 C49.67,95.71 49.73,95.42 49.86,95.16 L74.96,40.66 C75.41,39.72 75.01,38.59 74.06,38.14 C73.81,38.02 73.54,37.96 73.26,37.96 L42.36,37.96 C41.31,37.96 40.46,37.11 40.46,36.06 L40.46,36.06 L40.46,30.56 C40.46,29.51 41.31,28.66 42.36,28.66 L42.36,28.66 L86.56,28.66 C87.61,28.66 88.46,29.51 88.46,30.56 L88.46,30.56 L88.46,34.66 C88.41,34.97 88.35,35.27 88.26,35.56 Z" fill="#FAFAFA"/>
  <path d="M40.16,12.86 C40.16,10.56 38.56,9.86 29.36,10.16 C21.66,10.46 17.86,11.36 15.56,14.16 C13.26,16.96 12.66,22.66 12.56,29.46 C12.56,34.26 12.56,38.76 15.06,38.76 C18.46,38.76 18.46,30.86 21.26,26.46 C26.66,17.76 40.16,15.86 40.16,12.86 Z" fill="#B4E1ED" opacity="0.5"/>
</svg>
